X: 4167
T: BUCKS OF CRANMORE
T: Bucks of Oranmore
N: "Cranmore" was a misspelling introduced in this collection.
N: See also tune 4057.
%R: reel
B: James Kerr "Merry Melodies" v.4 p.19 #167
Z: 2016 John Chambers <jc:trillian.mit.edu>
M: C|
L: 1/8
K: D
dB !segno!|\
A>D (3(FED) ADBD | A>D (3(FED) B>E (3(EDE) |\
A>D (3(FED) A2 (3(Bcd) | efge fddB |\
A>D (3(FED) ADBD | A>D (3(FED) B,EEB |\
A>D (3(FED) A2 (3(Bcd) | efge fddc |]
Adfd edfd | Adfd edBd |\
Adfd edfg | abag fddc |\
Adfd edfd | Adfd edBd |\
(3(ABc) (de) fefg | (3(aba) (3(gag) fddc !segno!|]

%%sep 1 1 500
%%sep 1 1 500

